X:1
T:Frühlingslied
T:Johann Friedrich Reichardt
T:Ludwig Hölty
T:Frühlingslied
T:CPDL   —   Creative Commons Attribution Non Commercial 3.0
C:Johann Friedrich Reichardt
Z:Ludwig Hölty
Z:CPDL   —   Creative Commons Attribution Non Commercial 3.0
%%score [ ( 1 2 ) 3 4 ]
L:1/8
Q:1/4=96
M:6/8
K:G
V:1 treble nm="Sopran\nAlt"
V:2 treble 
V:3 treble-8 nm="Tenor"
V:4 bass nm="Bass"
V:1
"^Munter" D | G2 A B2 G | B2 c d2 d | d2 B d2 B | dcB A2 A | B2 ^c d2 e | (f2 e) d2 d | %7
w: 1.  Die|Luft ist blau, das|Tal ist grün, die|klei- nen Mai- en-|glo- * cken blüh'n und|Schlüs- sel- blu- men|drun- * ter; der|
w: 2. Drum|kom- me, wem der|Mai ge- fällt, und|freu- e sich der|schö- * nen Welt und|Got- tes Va- ter-|gü- * te, die|
 e2 d =c2 A | d2 c B2 d | e2 f g2 c | (B2 A) G2 |] %11
w: Wie- sen- grund ist|schon so bunt und|malt sich täg- lich|bun- * ter.|
w: sol- che Pracht her-|vor- ge- bracht, den|Baum und sei- ne|Blü- * te.|
V:2
 D | G2 F G2 G | G2 G G2 G | G2 G G2 G | A2 G F2 F | G2 G A2 B | (A2 G) F2 G | G2 ^G A2 A | %8
 A=GA B2 G | G2 A G2 G | (G2 F) D2 |] %11
V:3
 d | B2 c d2 G | d2 d d2 d | d2 d d2 d | d2 d d2 d | d2 e d2 d | dB^c d2 B | =c2 B Ace | %8
w: 1.  Die|Luft ist blau, das|Tal ist grün, die|klei- nen Mai- en-|glo- cken blühn und|Schlüs- sel- blu- men|drun- * * ter; der|Wie- sen- grund * ist|
w: 2. Drum|kom- me, wem der|Mai ge- fällt, und|freu- e sich der|schö- nen Welt und|Got- tes Va- ter-|gü- * * te, die|sol- che Pracht * her-|
 d2 d d2 B | c2 c d2 e | (d2 c) B2 |] %11
w: schon so bunt und|malt sich täg- lich|bun- * ter.|
w: vor- ge- bracht, den|Baum und sei- ne|Blü- * te.|
V:4
 D, | G,2 G, G,2 G, | G,2 A, B,2 B, | B,2 G, B,2 G, | F,2 G, D,2 D, | G,2 E, F,2 G, | A,3 D,2 G, | %7
 C,2 E, A,2 G, | F,E,F, G,2 G, | CB,A, B,2 C | (D2 D,) G,2 |] %11

